X: 169
T: Song gege
L: 1/16
M: 2/4
K: F
c c d fG4 [I:setbarnb 1]| 
c c d fG4 | 
c2 A c d2 f2 | 
f d c A2< G2 A | 
C2 C D G2 G A | 
C2 C DF4 | 
D2 D F D C B, A, | 
C8 |]

@@@ Tune index: 9043
